X: 29251
T: New Limerick Lasses, The
R: reel
M: 4/4
K: Dmajor
|:G|Addf efdB|ADFD FAA2|Addf efed|dBAF BEE:|
d||edef g2fe|defg afdf|edef g2fe|dBAF BEE2|
edef g2fe|defg afdf|bgaf gefd|dBAF BEE||

